!!!!SEGMENT: pl-sa--29-a-i-29--002_konigsperger-marianus--vesperae-ex-d-dixit-dominus.krn
!!!cenid: 17xx:539
!!!COM: Königsperger, Marianus
!!!COM-rismid: pe367346
!!!CDT: 1708/12/02-1769/10/09
!!!CNT: German
!!!OPR: Vesperae ex D
!!!OTL: Dixit Dominus
!!!OMV: 002
!!!PDT:
!!!AGN: Sacred; Vespers
!!!SMS-siglum: PL-SA
!!!SMS-shelfmark: 29/A I 29
!!!SMS-shelfwork: 001-002 M
!!!SMS-variant:
!!!SMS-altvar:
!!!NIFC-rismid: 1001068253
!!!system-decoration: [(s1,s2)][(s3,s4)][(s5,s6)]s7
**kern	**fba	**kern	**kern	**dynam	**kern	**text	**kern	**text	**kern	**kern
*part7	*part7	*part6	*part5	*part5	*part4	*part4	*part3	*part3	*part2	*part1
*staff7	*staff7	*staff6	*staff5	*	*staff4	*staff4	*staff3	*staff3	*staff2	*staff1
*I"Organo	*	*I"Violino Secondo	*I"Violino Primo	*	*I"Baſso	*	*I"Canto	*	*I"Clarino Secondo in D	*I"Clarino Primo in D
*I'org	*	*I'vl 2	*I'vl 1	*	*I'B	*	*I'S	*	*I'clno 2 in D	*I'clno 1 in D
*clefF4	*	*clefG2	*clefG2	*	*clefF4	*	*clefC1	*	*clefG2	*clefG2
*	*	*	*	*	*	*	*	*	*ITrd-1c-2	*ITrd-1c-2
*k[f#c#]	*	*k[f#c#]	*k[f#c#]	*	*k[f#c#]	*	*k[f#c#]	*	*k[f#c#]	*k[f#c#]
*D:	*	*D:	*D:	*	*D:	*	*D:	*	*D:	*D:
*M2/4	*	*M2/4	*M2/4	*	*M2/4	*	*M2/4	*	*M2/4	*M2/4
=1	=1	=1	=1	=1	=1	=1	=1	=1	=1	=1
*	*	*	*	*	*	*	*2\right	*	*	*
!	!	!	!	!	!LO:SIC:o=D:v:t='D' znajduje się przed kluczem i oznaczeniem metrum	!	!LO:SIC:o=D:v:t='D' znajduje się przed kluczem i oznaczeniem metrum	!	!	!
!LO:SIC:o=Dixit:v:t='Dixit' znajduje się przed kluczem i oznaczeniem metrum	!	!LO:SIC:o=Dixit:v:t='Dixit' znajduje się przed kluczem i oznaczeniem metrum	!LO:SIC:o=Dixit:v:t='Dixit' znajduje się przed kluczem i oznaczeniem metrum	!	!	!	!	!	!	!
!	!	!	!	!	!	!	!	!	!LO:TX:b:Bi:t=Dixit	!LO:TX:b:Bi:t=Dixit
4r	.	4r	4r	.	4r	.	4r	.	4r	4r
8D\L	.	8dd\L	8dd\L	.	8D\	Di-	8dd\	Di-	8f#/L	8dd\L
8A\J	.	8ee\J	8ee\J	.	8A\	-xit	8ee\	-xit	8a/J	8ee\J
=2	=2	=2	=2	=2	=2	=2	=2	=2	=2	=2
!	!	!	!	!	!	!	!LO:TX:a:t=P:w źródle dodatkowa linia pięciolinii dla nut ff# jest ciągła przez cały takt; poprawki skryptora:problem	!	!	!
16d\LL	5_ 3_	16a\LL	16ff#\LL	.	(>16d\LL	Do-	8ff#\	Do-	8a\L	8ff#\L
16c#\	.	16ff#\	16ddd\	.	16c#\JJ)	.	.	.	.	.
16B\	.	16ff#\	16ddd\	.	16B\	-mi-	16ff#\	-mi-	8dd\	8ff#\
16A\JJ	.	16ff#\JJ	16ddd\JJ	.	16A\	-nus	16ff#\	-nus	.	.
16G\LL	.	16a\LL	16ff#\LL	.	(>16G\LL	Do-	8ff#\	Do-	8dd\	8ff#\
16F#\	X X	16ff#\	16ddd\	.	16F#\JJ)	.	.	.	.	.
16E\	.	16ff#\	16ddd\	.	16E\	-mi-	16ff#\	-mi-	8dd\J	8ff#\J
16D\JJ	.	16ff#\JJ	16ddd\JJ	.	16D\	-no	16ff#\	-no	.	.
=3	=3	=3	=3	=3	=3	=3	=3	=3	=3	=3
8A\L	.	8ee\L	8ee\L	.	8A\	me-	8ee\	me-	8a/L	8ee\L
8A\	.	8cc#\	8aa\	.	8A\	-o	8ee\	-o	8a/	8ee\
8c#\	6	8ee\	8ee\	.	8c#\	ſe-	8ee\	ſe-	8a/	8ee\
8A\J	.	8cc#\J	8aa\J	.	16A\	-de	16ee\	-de	8a/J	8ee\J
!	!	!	!	!	!LO:SIC:s=ad:v	!	!	!	!	!
.	.	.	.	.	16A\	a	16ee\	ad	.	.
=4	=4	=4	=4	=4	=4	=4	=4	=4	=4	=4
!LO:TX:a:t=P:mixed beam:problem	!	!	!	!	!	!	!	!	!	!
8d\L	.	16a\LL	16ff#\LL	.	4d\	dex-	4ff#\	de-	4d/	4ff#\
.	.	16ff#\	16ddd\	.	.	.	.	.	.	.
16D/L	.	16ff#\	16ddd\	.	.	.	.	.	.	.
16E/JJ	.	16ff#\JJ	16ddd\JJ	.	.	.	.	.	.	.
8F#\L	6	16a\LL	16ff#\LL	.	4D\	-tris	4ff#\	-xtris	4dd\	4dd\
.	.	16ff#\	16ddd\	.	.	.	.	.	.	.
8D\J	.	16ff#\	16ddd\	.	.	.	.	.	.	.
.	.	16ff#\JJ	16ddd\JJ	.	.	.	.	.	.	.
=5	=5	=5	=5	=5	=5	=5	=5	=5	=5	=5
!LO:TX:a:t=P:mixed beam:problem	!	!	!	!	!	!	!	!	!	!
8A\L	.	16cc#\LL	16ee\LL	.	8A\	me-	8ee\	me-	8a/L	8ee\L
.	.	(>16ee\	(>16aa\	.	.	.	.	.	.	.
!	!	!	!	!	!LO:SIC:s=-is:v	!	!LO:SIC:s=-is:v	!	!	!
8AA/J	.	16dd\	16gg\	.	8AA/	-js	8ee\	-js	8a/	8ee\
.	.	16cc#\JJ)	16aa\JJ)	.	.	.	.	.	.	.
8D\L	.	8dd\L	8dd\L	.	8D\	do-	8dd\	do-	8f#/	8dd\
8A\J	.	8ee\J	8ee\J	.	8A\	-nec	8ee\	-nec	8a/J	8ee\J
=6	=6	=6	=6	=6	=6	=6	=6	=6	=6	=6
16d\LL	5_ 3_	16a\LL	16ff#\LL	.	(>16d\LL	po-	8ff#\	po-	8a/L	8ff#\L
16c#\	.	16ff#\	16ddd\	.	16c#\JJ)	.	.	.	.	.
16B\	.	16ff#\	16ddd\	.	(>16B\LL	-nam	8ff#\	-n(am)	8dd/	8ff#\
16A\JJ	.	16ff#\JJ	16ddd\JJ	.	16A\JJ)	.	.	.	.	.
16G\LL	.	16a\LL	16ff#\LL	.	16G\	i-	16ff#\	i-	8dd/	8ff#\
16F#\	.	16ff#\	16ddd\	.	16F#\	-ni-	16ff#\	-ni-	.	.
16E\	X X	16ff#\	16ddd\	.	16E\	-mi-	16ff#\	-mi-	8dd/J	8ff#\J
16D\JJ	.	16ff#\JJ	16ddd\JJ	.	16D\	-cos	16ff#\	-cos	.	.
!	!	!	!	!	!LO:LB:g=original	!	!LO:LB:g=original	!	!	!
=7	=7	=7	=7	=7	=7	=7	=7	=7	=7	=7
!	!	!LO:TX:a:t=P:w źródle delikatnie zaczęta druga belka:problem	!	!	!	!	!	!	!	!
!	!	!	!	!	!LO:SIC:s=tu-:v	!	!	!	!	!
8A\L	.	8ee\L	8ee\L	.	8A\	me-	8ee\	tu-	8a/L	8ee\L
8A\	.	8cc#\	8aa\	.	16A\	-os	16ee\	-os	16a/L	16ee\L
.	.	.	.	.	16A\	ſca-	16ee\	ſca-	16a/JJ	16ee\JJ
8c#\	.	8ee\	8ee\	.	8c#\	-bel-	8ee\	-bel-	8a/L	8ee\L
8A\J	.	8cc#\J	8aa\J	.	8A\	-lum	8ee\	-lum	8a/J	8ee\J
!LO:LB:g=original	!	!LO:LB:g=original	!LO:LB:g=original	!	!	!	!	!	!	!
=8	=8	=8	=8	=8	=8	=8	=8	=8	=8	=8
!	!	!	!	!	!	!	!LO:TX:a:t=P:w źródle dodatkowa linia pięciolinii dla nut ff# jest ciągła przez cały takt; poprawki skryptora:problem	!	!	!
!LO:TX:a:t=P:mixed beam:problem	!	!	!	!	!LO:TX:a:t=P:mixed beam:problem	!	!	!	!	!
8d\L	.	16a\LL	16ff#\LL	.	8d\L	pe-	4ff#\	pe-	4dd\	4ff#\
.	.	16ff#\	16ddd\	.	.	.	.	.	.	.
16D/L	.	16ff#\	16ddd\	.	(<16D/L	dum	.	.	.	.
16E/JJ	.	16ff#\JJ	16ddd\JJ	.	16E/JJ)	.	.	.	.	.
!	!	!	!	!	!	!	!LO:TX:a:t=P:niezrozumiała abrewiacja:problem	!	!	!
!	!	!	!	!	!	!	!	!	!LO:TX:a:t=P:mixed beam:problem	!
8F#\L	6	16a\LL	16ff#\LL	.	8F#\	tu-	8ff#\	-dum	8dd\L	8ff#\L
.	.	16ff#\	16ddd\	.	.	.	.	.	.	.
8D\J	.	16ff#\	16ddd\	.	8D\	-o-	8ff#\	tu-	8a/J	8ff#\J
.	.	16ff#\JJ	16ddd\JJ	.	.	.	.	.	.	.
=9	=9	=9	=9	=9	=9	=9	=9	=9	=9	=9
8A\L	.	(>16ee\LL	(>16ee\LL	.	8A\	-rum	8ee\	-o-	8a/L	8ee\L
.	.	16cc#\J)	16cc#\J)	.	.	.	.	.	.	.
8A\	.	8a\J	8a\J	.	8A\	Vir-	8ee\	-rum	8a/J	8ee\J
8d\	.	8ff#\L	8ff#\L	.	8d\	-g(am)	8ff#\	Vir-	4r	4r
8c#\J	.	8ff#\J	8ff#\J	.	(>16c#\LL	vir-	16ff#\	-gam	.	.
.	.	.	.	.	16c#\JJ)	.	16ff#\	vir-	.	.
=10	=10	=10	=10	=10	=10	=10	=10	=10	=10	=10
!	!	!	!	!	!	!	!	!	!LO:N:vis=00	!LO:N:vis=00
16B\LL	6	16dd\LL	8gg\L	.	16B\LL	-tu-	8gg\	-tu-	0r	0r
16A\	.	(>16cc#\	.	.	16A\JJ	.	.	.	.	.
16B\	.	16dd\)	8gg\J	.	16B\LL	-tis	8gg\	-tis	.	.
16G\JJ	.	16b\JJ	.	.	16G\JJ	.	.	.	.	.
8c#\L	.	8ee\L	(>16ee\LL	.	8c#\	tu-	(>16ee\LL	tu-	.	.
.	.	.	16dd\)	.	.	.	16dd\JJ)	.	.	.
8B\J	.	8ee\J	(>16ee\	.	16B\	-ae	16ee\	-ae	.	.
.	.	.	16cc#\JJ)	.	16B\	e-	16cc#\	e-	.	.
=11	=11	=11	=11	=11	=11	=11	=11	=11	=11	=11
16A\LL	6	16cc#\LL	8ff#\L	.	(>16A\LL	-mit-	8ff#\	-mit-	.	.
16G\	.	16b\	.	.	16G\JJ)	.	.	.	.	.
16A\	.	16cc#\	8ff#\J	.	(>16A\LL	-tet	8ff#\	-tet	.	.
16F#\JJ	.	16a\JJ	.	.	16F#\JJ)	.	.	.	.	.
!	!	!LO:TX:a:t=P:mixed beam:problem	!	!	!	!	!	!	!	!
8B\L	.	8dd\L	16dd\LL	.	16B\	Do-	16dd\	Do-	.	.
.	.	.	(>16cc#\	.	16B\	-mi-	16cc#\	-mi-	.	.
8A\J	.	8f#/J	16dd\)	.	16A\	-nus	16dd\	-nus	.	.
.	.	.	16b\JJ	.	16A\	ex	16b\	ex	.	.
=12	=12	=12	=12	=12	=12	=12	=12	=12	=12	=12
16G\LL	6	16b/LL	8ee\L	.	(>16G\LL	ſi-	8ee\	ſi-	.	.
16F#\	.	16a/	.	.	16F#\JJ)	.	.	.	.	.
16G\	.	16b/	8ee\J	.	(>16G\LL	-on	8ee\	-on	.	.
16E\JJ	.	16g/JJ	.	.	16E\JJ)	.	.	.	.	.
!	!	!	!	!	!LO:LB:g=original	!	!LO:LB:g=original	!	!	!
!	!	!LO:TX:a:t=P:mixed beam:problem	!	!	!	!	!	!	!	!
8A\L	.	8cc#\L	16cc#\LL	.	8A\	do-	(>16cc#\LL	do-	.	.
.	.	.	(>16b\	.	.	.	16b\JJ)	.	.	.
!	!	!LO:SIC:s=8e:v	!	!	!	!	!	!	!	!
8G\J	.	8f#/J	16cc#\)	.	8G\	-mi-	(>16cc#\LL	-mi-	.	.
.	.	.	16a\JJ	.	.	.	16a\JJ)	.	.	.
=13	=13	=13	=13	=13	=13	=13	=13	=13	=13	=13
16F#\LL	6	16a/LL	8dd\L	.	(>16F#\LL	-na-	8dd\	-na-	.	.
16E\	.	16g/	.	.	16E\JJ)	.	.	.	.	.
16F#\	.	16a/	8dd\J	.	16F#\	-re	16dd\	-re	.	.
16D\JJ	.	16f#/JJ	.	.	16D\	in	16dd\	in	.	.
!	!	!LO:TX:a:t=P:mixed beam:problem	!	!	!	!	!	!	!	!
8G\L	.	8b\L	16b/LL	.	8G\	me-	(>16b\LL	me-	.	.
.	.	.	(<16a/	.	.	.	16a\JJ)	.	.	.
8F#\J	.	8d/J	16b/)	.	16F#\	-di-	16b\	-di-	.	.
.	.	.	16g/JJ	.	16F#\	-o	16g\	-o	.	.
=14	=14	=14	=14	=14	=14	=14	=14	=14	=14	=14
!	!	!	!	!	!	!	!	!	!LO:N:vis=0	!LO:N:vis=0
!	!	!	!	!	!LO:SIC:s=i-:v	!	!	!	!	!
16E\LL	6	16g/LL	8cc#\L	.	(>16E\LL	j-	8cc#\	i-	1r	1r
16D\	.	16f#/	.	.	16D\JJ)	.	.	.	.	.
16E\	.	16g/	8cc#\J	.	16E\	-ni-	16cc#\	-ni-	.	.
16C#\JJ	.	16e/JJ	.	.	16C#\	-mi-	16cc#\	-mi-	.	.
8F#\L	.	8c#/L	16a/LL	.	8F#\	-co-	16a\LL	-co-	.	.
.	.	.	(<16g/	.	.	.	16g\JJ	.	.	.
8E\J	.	8f#/J	16a/)	.	16E\	-rum	16a\	-rum	.	.
.	.	.	16f#/JJ	.	16D\	tu-	16f#/	tu-	.	.
=15	=15	=15	=15	=15	=15	=15	=15	=15	=15	=15
16D\LL	6	16f#/LL	8b/L	.	(<16D/LL	-o-	8b\	-o-	.	.
16C#\	.	16e/	.	.	16C#/JJ)	.	.	.	.	.
16D\	.	16f#/	8b/J	.	16D/	-rum	16b\	-rum	.	.
16BB\JJ	.	16d/JJ	.	.	16BB/	in	16b\	in	.	.
!	!	!LO:LB:g=original	!	!	!	!	!	!	!	!
8E\L	.	8B/L	16g/LL	.	8E\	me-	(<16g/LL	me-	.	.
.	.	.	(<16f#/	.	.	.	16f#/JJ)	.	.	.
8D\J	.	8e/J	16g/)	.	16D/	-di-	16g/	-di-	.	.
.	.	.	16e/JJ	.	16D/	-o	16e/	-o	.	.
!LO:LB:g=original	!	!	!LO:LB:g=original	!	!	!	!	!	!	!
=16	=16	=16	=16	=16	=16	=16	=16	=16	=16	=16
8C#/L	6	8e/L	8.a/L	.	(<16C#/LL	i-	4a\	i-	4r	4r
.	.	.	.	.	16BB/JJ)	.	.	.	.	.
8BB/J	.	8d/J	.	.	4AA/	-ni-	.	.	.	.
.	.	.	16a/K	.	.	.	.	.	.	.
8AA/L	.	8c#/L	8a/	.	.	.	8a\	-ni-	8r	8r
16BB/L	.	(<16d/L	8a/J	.	(<16BB/LL	-mi-	8a\	-mi-	8a/	8ee\
16C#/JJ	.	16e/JJ)	.	.	16C#/JJ)	.	.	.	.	.
!	!	!	!	!	!	!	!LO:LB:g=original	!	!	!
=17	=17	=17	=17	=17	=17	=17	=17	=17	=17	=17
!LO:TX:a:t=P:mixed beam:problem	!	!	!	!	!	!	!	!	!	!
8D\L	.	8d/L	8f#/L	.	8D\	-co-	8f#/	-co-	8dd\L	8ff#\L
8F#\	.	8d/	8f#/	.	16F#\	-rum	16f#/	-rum	8dd\J	8ff#\
.	.	.	.	.	16F#\	tu-	16f#/	tu-	.	.
!	!	!	!	!	!LO:TX:a:t=P:mixed beam:problem	!	!	!	!	!
8A\	.	8.d/	8.e/	.	(>8A\L	-o-	4e/	-o-	8.a/L	8.ee\
8AA/J	4	.	.	.	8AA/J)	.	.	.	.	.
.	3	16c#/Jk	16e/Jk	.	.	.	.	.	16a/Jk	16ee\Jk
!	!	!	!	!	!LO:LB:g=original	!	!	!	!	!
=18	=18	=18	=18	=18	=18	=18	=18	=18	=18	=18
8D\L|	.	8d/L	8d/L	.	4D\	-rum	4d/	-rum	4f#/	4dd\
8F#\|	.	8f#/	8f#/	.	.	.	.	.	.	.
8G\|	.	8g/	8g/	.	4r	.	4r	.	4r	4r
8A\J|	.	8a/J	8a/J	.	.	.	.	.	.	.
=19	=19	=19	=19	=19	=19	=19	=19	=19	=19	=19
!	!	!	!	!	!	!	!LO:N:vis=00	!	!LO:N:vis=00	!LO:N:vis=00
8D\L	.	4d/	4d/	.	8r	.	0r	.	0r	0r
8D\	.	.	.	.	8D\	Ju-	.	.	.	.
8F#\	.	4r	4r	.	8F#\	-ra-	.	.	.	.
8D\J	.	.	.	.	8D\	-vit	.	.	.	.
=20	=20	=20	=20	=20	=20	=20	=20	=20	=20	=20
!	!	!LO:N:vis=00	!LO:N:vis=00	!	!	!	!	!	!	!
8C#/L	6	0r	0r	.	8.C#/	Do-	.	.	.	.
8BB/J	.	.	.	.	.	.	.	.	.	.
.	.	.	.	.	16BB/	-mi-	.	.	.	.
8AA/L	.	.	.	.	8AA/	-nus	.	.	.	.
16BB/L	.	.	.	.	(<16BB/LL	et	.	.	.	.
16C#/JJ	.	.	.	.	16C#/JJ)	.	.	.	.	.
=21	=21	=21	=21	=21	=21	=21	=21	=21	=21	=21
8D\L	.	.	.	.	8D\	non	.	.	.	.
8F#\	6	.	.	.	16F#\	poe-	.	.	.	.
.	.	.	.	.	16F#\	-ni-	.	.	.	.
8E\	5	.	.	.	8E\	-te-	.	.	.	.
8D\J	6	.	.	.	8D\	-bit	.	.	.	.
=22	=22	=22	=22	=22	=22	=22	=22	=22	=22	=22
!LO:TX:a:t=P:mixed beam:problem	!	!	!	!	!	!	!	!	!	!
8A\L	.	.	.	.	8A\	e-	.	.	.	.
16AA/L	.	.	.	.	8AA/	-um	.	.	.	.
16BB/JJ	.	.	.	.	.	.	.	.	.	.
8C#/L	.	.	.	.	8r	.	.	.	.	.
8D/J	.	.	.	.	8D\	Tu	.	.	.	.
=23	=23	=23	=23	=23	=23	=23	=23	=23	=23	=23
!	!	!	!	!	!	!	!LO:N:vis=00	!	!LO:N:vis=00	!LO:N:vis=00
8G\L	.	.	.	.	8G\	es	0r	.	0r	0r
8F#\	.	.	.	.	8F#\	ſa-	.	.	.	.
8G\	.	.	.	.	8G\	-cer-	.	.	.	.
8E\J	.	.	.	.	8E\	-dos	.	.	.	.
=24	=24	=24	=24	=24	=24	=24	=24	=24	=24	=24
!	!	!LO:N:vis=0	!LO:N:vis=0	!	!	!	!	!	!	!
8F#\L	6	1r	1r	.	8F#\	in	.	.	.	.
8E\	.	.	.	.	8E\	ae-	.	.	.	.
8F#\	.	.	.	.	8F#\	-ter-	.	.	.	.
8E\J	.	.	.	.	16E\	-num	.	.	.	.
.	.	.	.	.	16E\	ſe-	.	.	.	.
=25	=25	=25	=25	=25	=25	=25	=25	=25	=25	=25
8D\L	.	.	.	.	8D\	-cun-	.	.	.	.
8E\	.	.	.	.	8E\	-d(um)	.	.	.	.
8F#\	.	.	.	.	8F#\	or-	.	.	.	.
!	!	!	!	!	!LO:LB:g=original	!	!	!	!	!
8G\J	.	.	.	.	8G\	-di-	.	.	.	.
!LO:LB:g=original	!	!	!	!	!	!	!	!	!	!
=26	=26	=26	=26	=26	=26	=26	=26	=26	=26	=26
!LO:TX:a:t=P:mixed beam:problem	!	!	!	!	!	!	!	!	!	!
8A\L	.	2r	2r	.	8A\	-nem	.	.	.	.
8G\	6	.	.	.	8D\	Mel-	.	.	.	.
8A\	4	.	.	.	8.A\	-chi-	.	.	.	.
8AA/J	3	.	.	.	.	.	.	.	.	.
.	.	.	.	.	16AA/	-ſe-	.	.	.	.
=27	=27	=27	=27	=27	=27	=27	=27	=27	=27	=27
!	!	!	!	!	!	!	!	!	!LO:N:vis=00	!LO:N:vis=00
8D\L	.	8r	8r	.	4D\	-dech	8r	.	0r	0r
8D\	.	4f#/	4dd\	.	.	.	4dd\	Do-	.	.
8F#\	.	.	.	.	4r	.	.	.	.	.
8D\J	.	8f#/	8dd\	.	.	.	8dd\	-mi-	.	.
=28	=28	=28	=28	=28	=28	=28	=28	=28	=28	=28
!	!	!	!	!	!LO:N:vis=00	!	!	!	!	!
8G\L	6 5	4b/	4dd\	.	0r	.	8dd\	-nus	.	.
8E\	.	.	.	.	.	.	8dd\	a	.	.
8A\	.	[<4a/	4eeT>\	.	.	.	8cc#\	dex-	.	.
8G\J	.	.	.	.	.	.	8cc#\	-tris	.	.
=29	=29	=29	=29	=29	=29	=29	=29	=29	=29	=29
8F#\L	6	8a/L]	16ff#\LL	.	.	.	8dd\	tu-	.	.
.	.	.	16aa\JJ	.	.	.	.	.	.	.
8D\J	.	8f#/J	4ddd\	.	.	.	8dd\	-is	.	.
8r	.	8r	.	.	.	.	8r	.	.	.
8d\	.	8ff#\	8aa\	.	.	.	8ff#\	Con-	.	.
=30	=30	=30	=30	=30	=30	=30	=30	=30	=30	=30
4c#\	6	4ee\	4aa\	.	.	.	(>16ee\LL	-fre-	.	.
.	.	.	.	.	.	.	16dd\JJ)	.	.	.
.	.	.	.	.	.	.	4cc#\	.	.	.
8r	.	8r	8r	.	.	.	.	.	.	.
8c#\|	.	8ee\	8aa\	.	.	.	8ee\	.	.	.
=31	=31	=31	=31	=31	=31	=31	=31	=31	=31	=31
!	!	!	!	!	!	!	!	!	!LO:N:vis=00	!LO:N:vis=00
4B\	7 x	4dd\	4aa\	.	.	.	16dd\LL	.	0r	0r
.	.	.	.	.	.	.	16cc#\JJ	.	.	.
.	.	.	.	.	.	.	4b\	.	.	.
8r	.	8r	8r	.	.	.	.	.	.	.
8E\	7 #	8dd\	8gg#X\	.	.	.	8dd\	.	.	.
=32	=32	=32	=32	=32	=32	=32	=32	=32	=32	=32
!	!	!	!	!	!LO:N:vis=0	!	!	!	!	!
8A\L	.	8cc#\	8aa\	.	1r	.	8cc#\	.	.	.
8E\J	#	4b\	4gg#X\	.	.	.	8b\	-git	.	.
8r	.	.	.	.	.	.	8r	.	.	.
8E\	#	8e/	8e/	.	.	.	8b\	in	.	.
!	!	!LO:LB:g=original	!	!	!	!	!LO:LB:g=original	!	!	!
=33	=33	=33	=33	=33	=33	=33	=33	=33	=33	=33
8A\L	.	8a/L	8a/L	.	.	.	8cc#\	di-	.	.
8G#X\	6	8g#X/	8g#X/	.	.	.	8b\	-e	.	.
8A\	.	8a/	8a/	.	.	.	8cc#\	i-	.	.
8F#\J	.	8f#/J	8f#/J	.	.	.	8a\	-rae	.	.
!	!	!	!LO:LB:g=original	!	!	!	!	!	!	!
=34	=34	=34	=34	=34	=34	=34	=34	=34	=34	=34
8E\L	.	8e/L	8e/L	.	2r	.	8g#X\	ſu-	.	.
8C#\	6	8a/	8a/	.	.	.	8a\	-ae	.	.
!LO:SIC:s=8E:v	!	!	!	!	!	!	!	!	!	!
8D\	6	8.e/	8.e/	.	.	.	8e/L	re-	.	.
8E\J	.	.	.	.	.	.	8g#X/J	.	.	.
.	.	16e/Jk	16e/Jk	.	.	.	.	.	.	.
=35	=35	=35	=35	=35	=35	=35	=35	=35	=35	=35
!	!	!	!	!	!	!	!	!	!LO:N:vis=00	!LO:N:vis=00
8AA/L	.	4A/	4A/	.	8r	.	8a\	-ges	0r	0r
!LO:TX:a:t=P:w źródle wysokość dźwięku poprawiona przez skryptora i oznaczona 'a':problem	!	!	!	!	!	!	!	!	!	!
!LO:TX:b:t=a	!	!	!	!	!	!	!	!	!	!
8C# 8AA/	.	.	.	.	4A\	Ju-	4cc#\	Ju-	.	.
8C#/	6	4r	4r	.	.	.	.	.	.	.
8AA/J	.	.	.	.	8A\	-di-	8cc#\	-di-	.	.
=36	=36	=36	=36	=36	=36	=36	=36	=36	=36	=36
8E\L	6 4	2r	2r	.	8A\	-ca-	8cc#\	-ca-	.	.
8E\	5_ #_	.	.	.	16G#X\	-bit	16b\	-bit	.	.
.	.	.	.	.	16A\	in	16cc#\	in	.	.
8E\	.	.	.	.	8B\	ina-	8dd\	na-	.	.
8E\J	7 #	.	.	.	8B\	-ti-	8dd\	-ti-	.	.
!LO:LB:g=original	!	!	!	!	!	!	!	!	!	!
=37	=37	=37	=37	=37	=37	=37	=37	=37	=37	=37
8A\L	7 9	8r	8r	.	8B\	-o-	8dd\	-o-	.	.
8A\	5 6	4cc#\	4aa\	.	16A\	-ni-	16cc#\	-ni-	.	.
.	.	.	.	.	16A\	-bus	16cc#\	-bus	.	.
8c#\	.	.	.	.	4r	.	4r	.	.	.
8A\J	.	[>8cc#\	[>8aa\	.	.	.	.	.	.	.
=38	=38	=38	=38	=38	=38	=38	=38	=38	=38	=38
8E\L	6 4	8cc#\L]	8aa\L]	.	2r	.	2r	.	.	.
8E\	5 #	16b\L	16gg#X\L	.	.	.	.	.	.	.
.	.	16cc#\JJ	16aa\JJ	.	.	.	.	.	.	.
8E\	.	8dd\L	8bb\L	.	.	.	.	.	.	.
8G#X\J	6 x	[>8dd\J	[>8bb\J	.	.	.	.	.	.	.
.	5 x	.	.	.	.	.	.	.	.	.
=39	=39	=39	=39	=39	=39	=39	=39	=39	=39	=39
!LO:TX:a:t=P:mixed beam:problem	!	!	!	!	!	!	!	!	!	!
!	!	!	!	!	!	!	!	!	!LO:N:vis=00	!LO:N:vis=00
8A\L	4 5	8dd\L]	8bb\L]	.	8r	.	8r	.	0r	0r
8A\	3 8	8cc#\J	8aa\J	.	4A\	Ju-	4cc#\	Ju-	.	.
8C#/	6 x	4r	4r	.	.	.	.	.	.	.
8AA\/J	.	.	.	.	8A\	-di-	8cc#\	-di-	.	.
=40	=40	=40	=40	=40	=40	=40	=40	=40	=40	=40
!	!	!LO:N:vis=0	!LO:N:vis=0	!	!	!	!	!	!	!
8E\L	6 7	1r	1r	.	8A\	-ca-	8cc#\	-ca-	.	.
8E\	5 #	.	.	.	16G#X\	-bit	16cc#\	-bit	.	.
.	.	.	.	.	16A\	in	16cc#\	in	.	.
!	!	!	!	!	!	!	!LO:LB:g=original	!	!	!
8E\	.	.	.	.	8B\	na-	8dd\	na-	.	.
8G#X\J	6 x	.	.	.	8B\	-ti-	(>16ee\LL	-ti-	.	.
.	5 x	.	.	.	.	.	16dd\JJ)	.	.	.
!	!	!	!	!	!LO:LB:g=original	!	!	!	!	!
=41	=41	=41	=41	=41	=41	=41	=41	=41	=41	=41
!	!	!	!	!	!LO:SIC:s=8.A:v	!	!	!	!	!
8.A\L	7 9	.	.	.	8.B\	-o-	8.dd\	-o-	.	.
16A\K	3 8	.	.	.	16A\	-ni-	16cc#\	-ni-	.	.
8A\	.	.	.	.	8A\	-bus	8cc#\	-bus	.	.
8E\J	# x	.	.	.	8G#X\	Im-	8b\	im-	.	.
=42	=42	=42	=42	=42	=42	=42	=42	=42	=42	=42
8A\L	.	2r	2r	.	4A\	-ple-	4cc#\	-ple-	.	.
8A\	.	.	.	.	.	.	.	.	.	.
8D\	.	.	.	.	8B\	-bit	8dd\	-bit	.	.
8D\J	.	.	.	.	8A\	ru-	8cc#\	ru-	.	.
=43	=43	=43	=43	=43	=43	=43	=43	=43	=43	=43
!	!	!	!	!	!	!	!	!	!LO:N:vis=00	!LO:N:vis=00
!	!	!	!	!	!LO:SIC:s=-i-:v	!	!LO:SIC:s=-i-:v	!	!	!
8E\L	6 4	8r	8r	.	8A\	-j-	8cc#\	-j-	0r	0r
16E\L	5 #	16e/LL	16e/LL	.	8G#X\	-nas	8b\	-nas	.	.
16F#\JJ	.	16f#/JJ	16f#/JJ	.	.	.	.	.	.	.
8G#X\L	6 x	8g#X/L	8g#X/L	.	4r	.	4r	.	.	.
8E\J	# x	8e/J	8e/J	.	.	.	.	.	.	.
=44	=44	=44	=44	=44	=44	=44	=44	=44	=44	=44
8A\L	.	8ee\L	4r	.	4r	.	8ee\	Con-	.	.
8B\	.	8ee\	.	.	.	.	8ee\	-qua-	.	.
8c#\	.	8ee\	8r	.	8r	.	8ee\	-ſa-	.	.
8A\J	.	8ee\J	8ee\	.	(>8E\	Con-	8ee\	-bit	.	.
=45	=45	=45	=45	=45	=45	=45	=45	=45	=45	=45
!LO:TX:a:t=P:mixed beam:problem	!	!	!	!	!	!	!	!	!	!
!	!	!	!	!LO:DY:b:t=%siano	!	!	!	!	!	!
8d\L	.	8ee\L	4.ff#t>\	p	8F#\)	.	8ee\	ca-	.	.
8D/	.	16dd\L	.	.	8F#\	-quas-	(>16dd\LL	-pi-	.	.
.	.	16cc#\JJ	.	.	.	.	16cc#\JJ)	.	.	.
8F#/	6	8dd\L	.	.	8F#\	-ſa-	8dd\	-ta	.	.
8D/J	.	8dd\J	16ggn\LL	.	16Gn\LL	-bit	8dd\	in	.	.
.	.	.	16ff#\JJ	.	16F#\JJ	.	.	.	.	.
=46	=46	=46	=46	=46	=46	=46	=46	=46	=46	=46
!LO:TX:a:t=P:mixed beam:problem	!	!	!LO:N:vis=4	!	!	!	!	!	!	!
8A\L	4	8dd\L	4.eeT>\	.	8.E\	Ca-	8dd\L	ter-	.	.
.	3	.	.	.	.	.	.	.	.	.
8AA/	.	16cc#\L	.	.	.	.	(>16cc#\L	.	.	.
.	.	16b\JJ	.	.	16E\	-pi-	16b\JJ)	.	.	.
!	!	!LO:LB:g=original	!	!	!	!	!	!	!	!
8C#/	6	[>4cc#\	.	.	8E\	-ta	8cc#\	-ra	.	.
8AA/J	.	.	16ff#\LL	.	(>16F#\LL	in	8cc#\	in	.	.
.	.	.	16ee\JJ	.	16E\JJ)	.	.	.	.	.
!	!	!	!	!	!	!	!LO:LB:g=original	!	!	!
=47	=47	=47	=47	=47	=47	=47	=47	=47	=47	=47
!LO:TX:a:t=P:mixed beam:problem	!	!	!	!	!	!	!	!	!	!
!	!	!	!	!	!	!	!	!	!LO:N:vis=00	!LO:N:vis=00
!	!	!LO:SIC:s=8b:v	!	!	!	!	!	!	!	!
8BB/L	7	8cc#\L]	4.dd\	.	4.D\	ter-	8cc#\L	ter-	0r	0r
8B\	#	16b\L	.	.	.	.	(>16b\L	.	.	.
.	.	16a\JJ	.	.	.	.	16a\JJ)	.	.	.
8G#X\	.	[>4b\	.	.	.	.	4b\	-ra	.	.
!	!	!	!LO:LB:g=original	!	!	!	!	!	!	!
8E\J	.	.	16ee\LL	.	(>16E\LL	.	.	.	.	.
.	.	.	16dd\JJ	.	16D\JJ)	.	.	.	.	.
!LO:LB:g=original	!	!	!	!	!	!	!	!	!	!
=48	=48	=48	=48	=48	=48	=48	=48	=48	=48	=48
!LO:TX:a:t=P:mixed beam:problem	!	!	!	!	!	!	!	!	!	!
!	!	!LO:SIC:s=8a:v	!	!	!	!	!	!	!	!
8A\L	9	8b\L]	4.cc#\	.	4C#/	-ra	8b\L	ter-	.	.
8AA/	3	16a\L	.	.	.	.	(>16a\L	.	.	.
.	.	16g#X\JJ	.	.	.	.	16g#X\JJ)	.	.	.
!	!	!	!	!	!LO:TX:a:t=P:mixed beam:problem	!	!	!	!	!
8C#/	6	8a/L	.	.	(>8C#/L	mul-	8a\	-ra	.	.
8AA/J	.	[>8cc#/J	[>8aa\	.	8A\J)	.	8cc#\	mul-	.	.
=49	=49	=49	=49	=49	=49	=49	=49	=49	=49	=49
8E\L	6 4	8cc#\]	8aa\]	.	8A\	-to-	8cc#\	-to-	.	.
!	!	!	!	!	!LO:LB:g=original	!	!	!	!	!
8E\J	5 #	4b\	4gg#X\	.	8G#X\	-rum	8b\	-rum	.	.
8r	.	.	.	.	8r	.	8r	.	.	.
!	!	!	!LO:SIC:s=8a:v	!	!	!	!	!	!	!
8AA/	.	8a/	8g#X/	.	8E\	In	8cc#\	in	.	.
=50	=50	=50	=50	=50	=50	=50	=50	=50	=50	=50
!LO:TX:a:t=P:dźwięki w głosach nie pasują do siebie; kłopot z harmonią:problem	!	!LO:TX:a:t=P:dźwięki w głosach nie pasują do siebie; kłopot z harmonią:problem	!LO:TX:a:t=P:dźwięki w głosach nie pasują do siebie; kłopot z harmonią:problem	!	!LO:TX:a:t=P:dźwięki w głosach nie pasują do siebie; kłopot z harmonią:problem	!	!LO:TX:a:t=P:dźwięki w głosach nie pasują do siebie; kłopot z harmonią:problem	!	!	!
8D\L	9 7	8d/L	8d/L	.	4E\	ter-	4cc#\	ter-	.	.
8C#\	.	8c#/	8c#/	.	.	.	.	.	.	.
8D\	8 6	8d/	8d/	.	8D\	-ra	8b\	-ra	.	.
8E\J	.	8e/J	8e/J	.	8D\	in	8b\	in	.	.
=51	=51	=51	=51	=51	=51	=51	=51	=51	=51	=51
!	!	!	!	!	!	!	!	!	!LO:N:vis=00	!LO:N:vis=00
8F#\L	6 4	8f#/L	8f#/L	.	4D\	ter-	4b\	ter-	0r	0r
8E\	.	8e/	8e/	.	.	.	.	.	.	.
!LO:TX:a:t=P:w źródle przy '3' kropka:problem	!	!	!	!	!	!	!	!	!	!
8F#\	3 x	8f#/	8f#/	.	8C#\	-ra	8a\	-ra	.	.
!	!	!	!	!	!	!	!LO:SIC:s=8ee:v	!	!	!
8C#\J	.	8c#/J	8c#/J	.	8A\	mul-	8dd\	mul-	.	.
=52	=52	=52	=52	=52	=52	=52	=52	=52	=52	=52
!LO:TX:a:t=P:mixed beam:problem	!	!	!	!	!	!	!	!	!	!
8D/L	6 5	8d/L	8d/L	.	8A\L	-to-	2b\	-to-	.	.
8BB/	.	8B/	8B/	.	(>16G#X\L	.	.	.	.	.
.	.	.	.	.	16F#\JJ)	.	.	.	.	.
8E/	.	8e/	8.e/	.	4G#\	.	.	.	.	.
8EE/J	4 x	8e/J	.	.	.	.	.	.	.	.
.	# x	.	16e/Jk	.	.	.	.	.	.	.
=53	=53	=53	=53	=53	=53	=53	=53	=53	=53	=53
8AA/	.	8A/	8A/	.	8A\	-rum	4a\	-rum	.	.
4A\	.	4cc#\	4cc#\	.	4A\	De	.	.	.	.
.	.	.	.	.	.	.	4r	.	.	.
8Gn\	.	16b\LL	(>16b\LL	.	8Gn\	tor-	.	.	.	.
.	.	16a\JJ	16cc#\JJ)	.	.	.	.	.	.	.
=54	=54	=54	=54	=54	=54	=54	=54	=54	=54	=54
!	!	!	!	!	!	!	!LO:N:vis=00	!	!	!
8F#\L	6	8dd\L	8dd\L	.	8F#\	-ren-	0r	.	.	.
8D\	.	(>16ee\L	(>16ee\L	.	16E\	-te	.	.	.	.
.	.	16ff#\JJ)	16ff#\JJ)	.	16D\	in	.	.	.	.
8G\	6	8b/L	8ee\L	.	8G\	Vi-	.	.	.	.
8A\J	.	8e/J	(>16dd\L	.	8A\	-a	.	.	.	.
.	.	.	16cc#\JJ)	.	.	.	.	.	.	.
=55	=55	=55	=55	=55	=55	=55	=55	=55	=55	=55
!	!	!	!	!	!	!	!	!	!LO:N:vis=0	!LO:N:vis=0
8F#\	6	16f#/LL	(>16dd\LL	.	8F#\	bi-	.	.	1r	1r
.	.	16cc#/JJ	16ee\JJ)	.	.	.	.	.	.	.
4D\	.	4dd\	4ff#\	.	8D\	-bet	.	.	.	.
.	.	.	.	.	8r	.	.	.	.	.
8F#\	6	8a/	16dd\LL	.	8F#\	pro-	.	.	.	.
.	5	.	16cc#\JJ	.	.	.	.	.	.	.
=56	=56	=56	=56	=56	=56	=56	=56	=56	=56	=56
8G\L	.	8b/L	8b\L	.	8G\	-pte-	.	.	.	.
8G\	.	8b/	16cc#\L	.	16G\	-re-	.	.	.	.
.	.	.	16dd\JJ	.	16G\	-a	.	.	.	.
8E\	6	8g/	8cc#\L	.	8E\	e-	.	.	.	.
8E\J	5	8g/J	8b\J	.	8E\	-xal-	.	.	.	.
!	!	!LO:LB:g=original	!	!	!LO:LB:g=original	!	!	!	!	!
=57	=57	=57	=57	=57	=57	=57	=57	=57	=57	=57
!	!	!LO:TX:a:t=P:mixed beam:problem	!LO:TX:a:t=P:mixed beam:problem	!	!	!	!	!	!	!
8F#\L	# x	8f#/L	16a#X/LL	.	8F#\	-ta-	.	.	2r	2r
.	.	.	16f#/J	.	.	.	.	.	.	.
8D\	6 x	8ff#\	8bb\J	.	8D\	-bit	.	.	.	.
!	!	!	!LO:LB:g=original	!	!	!	!	!	!	!
8E\	6 #	8.ee\	8.gg#X\L	.	(>8E\L	Ca-	.	.	.	.
8F#\J	# x	.	.	.	8F#\J)	.	.	.	.	.
.	.	16cc#\Jk	16aa\Jk	.	.	.	.	.	.	.
!	!	!	!	!	!	!	!	!	!LO:LB:g=original	!LO:LB:g=original
=58	=58	=58	=58	=58	=58	=58	=58	=58	=58	=58
4BB/	#	4b/	4bb\	.	4BB/	-put	4r	.	4r	4r
8D\L	.	8ff#\L	8dd\L	.	8D\	Glo-	8dd\	Glo-	8f#/L	8dd\L
!	!	!	!	!LO:DY:b:t=%sor	!	!	!	!	!	!
8A\J	.	8cc#\J	8ee\J	f	16A\	-ri-	16ee\	-ri-	8a/J	8ee\J
.	.	.	.	.	16A\	-a	16ee\	-a	.	.
!LO:LB:g=original	!	!	!	!	!	!	!	!	!	!
=59	=59	=59	=59	=59	=59	=59	=59	=59	=59	=59
!	!	!	!	!	!	!	!	!	!LO:TX:a:t=P:mixed beam:problem	!
16d\LL	5_ 3_	16a\LL	16ff#\LL	.	(>16d\LL	Pa-	8ff#\	Pa-	8d/L	8ff#\L
16c#\	.	16ff#\	16ddd\	.	16c#\JJ)	.	.	.	.	.
16B\	.	16ff#\	16ddd\	.	(>16B\LL	-tri	8ff#\	-tri	8dd\	8ff#\
16A\JJ	.	16ff#\JJ	16ddd\JJ	.	16A\JJ)	.	.	.	.	.
!	!	!	!	!	!	!	!LO:LB:g=original	!	!	!
16G\LL	.	16a\LL	16ff#\LL	.	(>16G\LL	Glo-	8ff#\	Glo-	8dd\	8ff#\
16F#\	.	16ff#\	16ddd\	.	16F#\JJ)	.	.	.	.	.
16E\	X X	16ff#\	16ddd\	.	16E\	-ri-	16ff#\	-ri-	8dd\J	8ff#\J
16D\JJ	.	16ff#\JJ	16ddd\JJ	.	16D\	-a	16ff#\	-a	.	.
=60	=60	=60	=60	=60	=60	=60	=60	=60	=60	=60
8A\L	.	8cc#\L	8ee\L	.	8A\	Fi-	8ee\	Fi-	8a/L	8ee\L
8A\	.	8ee\	8aa\	.	16A\	-li-	16ee\	-li-	8a/	8ee\
.	.	.	.	.	16A\	-o	16ee\	-o	.	.
8c#\	6	8cc#\	8ee\	.	8c#\	et	8ee\	et	8a/	8ee\
8A\J	.	8ee\J	8aa\J	.	8A\	ſpi-	8ee\	ſpi-	8a/J	8ee\J
=61	=61	=61	=61	=61	=61	=61	=61	=61	=61	=61
8d\L	.	8dd\L	8ff#\L	.	8d\	-ri-	8ff#\	-ri-	8a/L	8ff#\L
8F#\	6 x	8dd\J	8dd\J	.	16F#\	-tu-	16dd\	-tu-	8dd/	8dd\
!	!	!	!	!	!	!	!LO:SIC:s=-i-:v	!	!	!
.	.	.	.	.	16F#\	-i	16dd\	-j	.	.
8G\	6 5	8ee\L	8ee\L	.	(>8G\L	ſan-	(>8dd\L	ſan-	8.a/	8.ee\
8A\J	.	(>16dd\L	(>16dd\L	.	8A\J)	.	8cc#\J)	.	.	.
.	.	16cc#\JJ)	16cc#\JJ)	.	.	.	.	.	16a/Jk	16ee\Jk
=62	=62	=62	=62	=62	=62	=62	=62	=62	=62	=62
4D\	.	4dd\	4dd\	.	4D/	-cto	4dd\	-cto	4f#/	4dd\
8d\L	.	8ff#\L	8ff#\L	.	8d\	ſi-	8ff#\	ſi-	4r	4r
8c#\J	.	[>8dd\J	8ff#\J	.	8c#\	-cut	8ff#\	-cut	.	.
=63	=63	=63	=63	=63	=63	=63	=63	=63	=63	=63
!	!	!	!	!	!	!	!	!	!LO:N:vis=0	!LO:N:vis=0
16B\LL	6	16dd\LL]	8gg\L	.	(>16B\LL	e-	8gg\	e-	1r	1r
16A\	.	16cc#\	.	.	16A\JJ)	.	.	.	.	.
16B\	.	16dd\	8gg\J	.	(>16B\LL	-rat	8gg\	-rat	.	.
16G\JJ	.	16b\JJ	.	.	16G\JJ)	.	.	.	.	.
!	!	!	!	!	!LO:LB:g=original	!	!	!	!	!
8c#\L	.	8g\L	16ee\LL	.	8c#\	in	(>16ee\LL	in	.	.
.	.	.	(>16dd\	.	.	.	16dd\JJ)	.	.	.
8B\J	.	[>8cc#\J	16ee\)	.	8B\	prin-	(>16ee\LL	prin-	.	.
.	.	.	16cc#\JJ	.	.	.	16cc#\JJ)	.	.	.
=64	=64	=64	=64	=64	=64	=64	=64	=64	=64	=64
16A\LL	6	16cc#\LL]	8ff#\L	.	(>16A\LL	-ci-	8.ff#\	-ci-	.	.
16G\	.	16b\	.	.	16G\JJ)	.	.	.	.	.
16A\	.	16cc#\	8ff#\J	.	(>16A\LL	-pi-	.	.	.	.
16F#\JJ	.	16a\JJ	.	.	16F#\JJ)	.	16ff#\	-pi-	.	.
8B\L	.	8f#/L	16dd\LL	.	8B\	-o	(>16dd\LL	-o	.	.
.	.	.	(>16cc#\	.	.	.	16cc#\JJ)	.	.	.
8A\J	.	8b/J	16dd\)	.	8A\	et	(>16dd\LL	et	.	.
.	.	.	16b\JJ	.	.	.	16b\JJ)	.	.	.
!	!	!	!	!	!	!	!LO:LB:g=original	!	!	!
=65	=65	=65	=65	=65	=65	=65	=65	=65	=65	=65
16G\LL	6	16b/LL	8ee\L	.	(>16G\LL	nunc	8ee\	nunc	2r	2r
16F#\	.	16a/	.	.	16F#\JJ)	.	.	.	.	.
16G\	.	16b/	8ee\J	.	(>16G\LL	et	8ee\	et	.	.
16E\JJ	.	16g/JJ	.	.	16E\JJ)	.	.	.	.	.
8A\L	.	8e/L	16cc#\LL	.	8A\	ſem-	(>16cc#\LL	ſem-	.	.
.	.	.	(>16b\	.	.	.	16b\JJ)	.	.	.
8G\J	.	8a/J	16cc#\)	.	8G\	-per	(>16cc#\LL	-per	.	.
.	.	.	16a\JJ	.	.	.	16a\JJ)	.	.	.
!	!	!LO:LB:g=original	!	!	!	!	!	!	!	!
=66	=66	=66	=66	=66	=66	=66	=66	=66	=66	=66
*	*	*	*	*	*	*ij	*	*	*	*
8F#\L	6	16a/LL	16dd\LL	.	8F#\	ſem-	8dd\	ſem-	4r	4r
.	.	16a/	16dd\	.	.	.	.	.	.	.
8D\J	.	16dd/	16ff#\	.	8D\	-per	8dd\	per	.	.
.	.	16dd/JJ	16ff#\JJ	.	.	.	.	.	.	.
*	*	*	*	*	*	*Xij	*	*	*	*
8C#/L	6	16ee\LL	16ee\LL	.	8C#/	et	8ee\	et	8a/L	8ee\L
.	.	16ee\	16ee\	.	.	.	.	.	.	.
8AA/J	.	16ee\	16ccc#\	.	8AA/	in	8ee\	in	8a/J	8ee\J
.	.	16ee\JJ	16ccc#\JJ	.	.	.	.	.	.	.
!	!	!	!LO:LB:g=original	!	!	!	!	!	!	!
=67	=67	=67	=67	=67	=67	=67	=67	=67	=67	=67
8A\L	.	16ff#\LL	16ddd\LL	.	8D\	ſae-	8ff#\	ſae-	8a/L	8ff#\L
.	.	16ff#\	16ddd\	.	.	.	.	.	.	.
8c#\	.	16ee\	16ccc#\	.	16A\	-cu-	16ee\	-cu-	8a/	8ee\
.	.	16ee\JJ	16ccc#\JJ	.	16A\	-la	16ee\	-la	.	.
8d\	.	16ff#\LL	16ddd\LL	.	8d\	ſae-	8ff#\	ſae-	8d/	8ff#\
.	.	16ff#\	16ddd\	.	.	.	.	.	.	.
8c#\J	6	16ee\	16ccc#\	.	8c#\	-cu-	8ee\	-cu-	8a/J	8ee\J
.	.	16ee\JJ	16ccc#\JJ	.	.	.	.	.	.	.
!LO:LB:g=original	!	!	!	!	!	!	!	!	!	!
=68	=68	=68	=68	=68	=68	=68	=68	=68	=68	=68
8d\L	.	8a\L	8ddd\L	.	8d\	-lo-	8ff#\	-lo-	8dd\L	8ff#\L
8F#\	6 x	8dd\	8ff#\J	.	8F#\	-rum	8dd\	-rum	8dd\J	8dd\
8G\	6 5	8.dd\	8ee\L	.	(>8G\L	a-	(>8dd\L	a-	8.a/L	8.eeT>\
8A\J	.	.	16dd\L	.	8A\J)	.	8cc#\J)	.	.	.
.	.	16cc#\Jk	16cc#\JJ	.	.	.	.	.	16a/Jk	16ee\Jk
=69	=69	=69	=69	=69	=69	=69	=69	=69	=69	=69
4D\	.	4dd\	4dd\	.	4D/	-men	4dd\	-men	4f#/	4dd\
4r	.	4r	4r	.	4r	.	4r	.	4r	4r
!LO:TX:a:t=P:w źródle ozdobna kreska końcowa:problem	!	!LO:TX:a:t=P:w źródle ozdobna kreska końcowa:problem	!LO:TX:a:t=P:w źródle ozdobna kreska końcowa:problem	!	!LO:TX:a:t=P:w źródle ozdobna kreska końcowa:problem	!	!LO:TX:a:t=P:w źródle ozdobna kreska końcowa:problem	!	!LO:TX:a:t=P:w źródle ozdobna kreska końcowa:problem	!LO:TX:a:t=P:w źródle ozdobna kreska końcowa:problem
==	==	==	==	==	==	==	==	==	==	==
*-	*-	*-	*-	*-	*-	*-	*-	*-	*-	*-
!!title: @{OTL};
!!!RDF**kern: > = above
!!!RDF**kern: < = below
!!!EED: Wojciech Jakubiak-Danek
!!!EST: 2020-11-05
!!!URL-scan: http://bc.bdsandomierz.pl/dlibra/publication/1262/edition/1230/content
!!!ONB-nifc: UWAGA: części Vesperae: Domine ad adjuvandum, Dixit Dominus, Laudate pueri, Laetatus sum, Nisi Dominus, Lauda Jerusalem, Magnificat
!!!ENC: Krzysztof Stępień
!!!END: 2020-05-23
!!!RDF**kern: | = vertical stroke
